X:3
T: Házasító dal
O: Lengyelfalva (Udvarhely), Orbán Ákosné, 1903.
M:2/4
L:1/4
Q: "Tempo guisto"
K:Bb
({G//A//}B/)c/d/(e/{c}) | (d{c//B//})(c{B//c//}) | d/d/c/<c/ | B z | 
M:5/8
G/G/(G/{F}) G//F/z// | G/G/(G/{/F}) G//F/ z//| 
M:2/4
B/<c/ (3:2:2 d/e | d c | B/B/G/F/ | B/G/F/ z/ | 
(3:2:2 Gc/ G/c/ | G/ z/ z |

